X: 9336
T: Dancing At Lughnasa
R: reel
M: 4/4
K: Gmajor
g2|ae e/e/e efed|cedB cA A/A/A|d/d/d Bd fdBe|cAdA BE E/E/g
ae e/e/e efed|cedB cA de|f/=g/a =ge fdeB|c/d/e dB A2|
g2|ae e/e/e efed|cedB cA A/A/A|d/d/d Bd fdBe|cAdA BE E/E/g
ae e/e/e efed|cedB cA de|f/=g/a =ge fdeB|c/d/e dB A2|

